komodo/Komodo-Biru/apps/scalable/liferea.svg

<?xml version="1.0" encoding="UTF-8" standalone="no"?>
<!-- Created with Inkscape (http://www.inkscape.org/) -->

<svg
   xmlns:dc="http://purl.org/dc/elements/1.1/"
   xmlns:cc="http://creativecommons.org/ns#"
   xmlns:rdf="http://www.w3.org/1999/02/22-rdf-syntax-ns#"
   xmlns:svg="http://www.w3.org/2000/svg"
   xmlns="http://www.w3.org/2000/svg"
   xmlns:xlink="http://www.w3.org/1999/xlink"
   xmlns:sodipodi="http://sodipodi.sourceforge.net/DTD/sodipodi-0.dtd"
   xmlns:inkscape="http://www.inkscape.org/namespaces/inkscape"
   width="96"
   height="96"
   id="svg2"
   version="1.1"
   inkscape:version="0.48.1 r9760"
   sodipodi:docname="liferea.svg">
  <defs
     id="defs4">
    <filter
       color-interpolation-filters="sRGB"
       inkscape:collect="always"
       id="filter6279">
      <feGaussianBlur
         inkscape:collect="always"
         stdDeviation="0.8"
         id="feGaussianBlur6281" />
    </filter>
    <linearGradient
       inkscape:collect="always"
       xlink:href="#linearGradient2841"
       id="linearGradient5801"
       gradientUnits="userSpaceOnUse"
       gradientTransform="translate(0,-7.8515622e-6)"
       x1="48"
       y1="1052.3622"
       x2="48"
       y2="902.36218" />
    <linearGradient
       id="linearGradient2841">
      <stop
         id="stop2843"
         style="stop-color:#d4530d;stop-opacity:1"
         offset="0" />
      <stop
         id="stop2845"
         style="stop-color:#f7ad25;stop-opacity:1"
         offset="1" />
    </linearGradient>
    <clipPath
       id="clipPath3754">
      <path
         d="m -78,6 c -3.324,0 -6,2.676 -6,6 l 0,72 c 0,3.324 2.676,6 6,6 l 72,0 c 3.324,0 6,-2.676 6,-6 L 0,12 C 0,8.676 -2.676,6 -6,6 l -72,0 z m 4,10 a 64,64 0 0 1 64,64 l -12.8125,0 A 51.2,51.2 0 0 0 -74,28.8125 L -74,16 z m 0,21.5625 A 42.422857,42.422857 0 0 1 -31.5625,80 L -44,80 A 29.988571,29.988571 0 0 0 -74,50 l 0,-12.4375 z m 8.78125,24.875 c 4.847482,0 8.78125,3.933769 8.78125,8.78125 C -56.4375,76.066233 -60.371268,80 -65.21875,80 -70.066232,80 -74,76.066233 -74,71.21875 c 0,-4.847481 3.933768,-8.78125 8.78125,-8.78125 z"
         inkscape:connector-curvature="0"
         id="path3756"
         style="fill:#ff0000;fill-opacity:1;fill-rule:nonzero;stroke:none" />
    </clipPath>
    <filter
       x="-0.12"
       y="-0.12"
       width="1.24"
       height="1.24"
       color-interpolation-filters="sRGB"
       id="filter3762">
      <feGaussianBlur
         id="feGaussianBlur3764"
         stdDeviation="3.2" />
    </filter>
    <clipPath
       id="clipPath3775">
      <path
         d="m -84,16 0,12.8 A 51.2,51.2 0 0 1 -32.8,80 L -20,80 A 64,64 0 0 0 -84,16 z m 0,21.577143 0,12.434286 A 29.988571,29.988571 0 0 1 -54.011429,80 l 12.434286,0 A 42.422857,42.422857 0 0 0 -84,37.577143 z m 8.777142,24.868571 C -80.07034,62.445714 -84,66.375376 -84,71.222857 -84,76.07034 -80.07034,80 -75.222858,80 c 4.847482,0 8.777144,-3.92966 8.777144,-8.777143 0,-4.847481 -3.929662,-8.777143 -8.777144,-8.777143 z"
         inkscape:connector-curvature="0"
         id="path3777"
         style="fill:#ffffff" />
    </clipPath>
    <filter
       color-interpolation-filters="sRGB"
       id="filter3787">
      <feGaussianBlur
         id="feGaussianBlur3789"
         stdDeviation="0.42" />
    </filter>
    <linearGradient
       y2="138.66119"
       x2="48"
       y1="20.220806"
       x1="48"
       gradientUnits="userSpaceOnUse"
       id="linearGradient3871-8"
       xlink:href="#linearGradient3737-64"
       inkscape:collect="always" />
    <linearGradient
       id="linearGradient3737-64">
      <stop
         id="stop3739-38"
         style="stop-color:#ffffff;stop-opacity:1"
         offset="0" />
      <stop
         id="stop3741-67"
         style="stop-color:#ffffff;stop-opacity:0"
         offset="1" />
    </linearGradient>
    <clipPath
       id="clipPath3613-08">
      <rect
         width="84"
         height="84"
         rx="6"
         ry="6"
         x="6"
         y="6"
         id="rect3615-19"
         style="fill:#ffffff;fill-opacity:1;fill-rule:nonzero;stroke:none" />
    </clipPath>
    <filter
       x="-0.192"
       y="-0.192"
       width="1.3839999"
       height="1.3839999"
       color-interpolation-filters="sRGB"
       id="filter3794-81">
      <feGaussianBlur
         id="feGaussianBlur3796-64"
         stdDeviation="5.28" />
    </filter>
  </defs>
  <sodipodi:namedview
     id="base"
     pagecolor="#ffffff"
     bordercolor="#666666"
     borderopacity="1.0"
     inkscape:pageopacity="0.0"
     inkscape:pageshadow="2"
     inkscape:zoom="3.959798"
     inkscape:cx="28.389459"
     inkscape:cy="57.490015"
     inkscape:document-units="px"
     inkscape:current-layer="layer1"
     showgrid="false"
     inkscape:window-width="1280"
     inkscape:window-height="725"
     inkscape:window-x="0"
     inkscape:window-y="25"
     inkscape:window-maximized="1" />
  <metadata
     id="metadata7">
    <rdf:RDF>
      <cc:Work
         rdf:about="">
        <dc:format>image/svg+xml</dc:format>
        <dc:type
           rdf:resource="http://purl.org/dc/dcmitype/StillImage" />
        <dc:title></dc:title>
      </cc:Work>
    </rdf:RDF>
  </metadata>
  <g
     inkscape:label="Layer 1"
     inkscape:groupmode="layer"
     id="layer1"
     transform="translate(0,-956.36217)">
    <g
       transform="translate(0,-1e-5)"
       id="g9369">
      <rect
         transform="translate(0,-7.8515622e-6)"
         y="964.36218"
         x="8"
         height="80"
         width="80"
         id="rect9283"
         style="fill:#000000;fill-opacity:1;stroke:none;filter:url(#filter6279)"
         rx="5"
         ry="5" />
      <rect
         ry="5"
         rx="5"
         style="fill:url(#linearGradient5801);fill-opacity:1;stroke:none"
         id="rect9285"
         width="80"
         height="80"
         x="8"
         y="964.36218" />
      <g
         id="layer3"
         transform="matrix(0.81905242,0,0,0.81905242,8.805484,965.02766)">
        <path
           style="opacity:0.4;fill:#ffffff;filter:url(#filter3762)"
           id="path3744"
           clip-path="url(#clipPath3754)"
           transform="translate(90,0)"
           inkscape:connector-curvature="0"
           d="m -74,16 0,12.8 A 51.2,51.2 0 0 1 -22.8,80 L -10,80 A 64,64 0 0 0 -74,16 z m 0,21.577143 0,12.434286 A 29.988571,29.988571 0 0 1 -44.011429,80 l 12.434286,0 A 42.422857,42.422857 0 0 0 -74,37.577143 z m 8.777142,24.868571 C -70.07034,62.445714 -74,66.375376 -74,71.222857 -74,76.07034 -70.07034,80 -65.222858,80 c 4.847482,0 8.777144,-3.92966 8.777144,-8.777143 0,-4.847481 -3.929662,-8.777143 -8.777144,-8.777143 z" />
        <path
           style="fill:#ffffff"
           id="circle3643"
           inkscape:connector-curvature="0"
           d="m 16,16 0,12.8 A 51.2,51.2 0 0 1 67.2,80 L 80,80 A 64,64 0 0 0 16,16 z m 0,21.577143 0,12.434286 A 29.988571,29.988571 0 0 1 45.988571,80 l 12.434286,0 A 42.422857,42.422857 0 0 0 16,37.577143 z m 8.777142,24.868571 C 19.92966,62.445714 16,66.375376 16,71.222857 16,76.07034 19.92966,80 24.777142,80 c 4.847482,0 8.777144,-3.92966 8.777144,-8.777143 0,-4.847481 -3.929662,-8.777143 -8.777144,-8.777143 z" />
        <path
           style="opacity:0.8;fill:#000000;fill-opacity:1;fill-rule:nonzero;stroke:none;filter:url(#filter3787)"
           id="rect3766"
           clip-path="url(#clipPath3775)"
           transform="translate(100,0)"
           inkscape:connector-curvature="0"
           d="m -88,6 c -3.324,0 -6,2.676 -6,6 l 0,72 c 0,3.324 2.676,6 6,6 l 72,0 c 3.324,0 6,-2.676 6,-6 l 0,-72 c 0,-3.324 -2.676,-6 -6,-6 l -72,0 z m 4,11 a 64,64 0 0 1 64,64 l -12.8125,0 A 51.2,51.2 0 0 0 -84,29.8125 L -84,17 z m 0,21.5625 A 42.422857,42.422857 0 0 1 -41.5625,81 L -54,81 A 29.988571,29.988571 0 0 0 -84,51 l 0,-12.4375 z m 8.78125,24.875 c 4.847482,0 8.78125,3.933769 8.78125,8.78125 C -66.4375,77.066233 -70.371268,81 -75.21875,81 -80.066232,81 -84,77.066233 -84,72.21875 c 0,-4.847481 3.933768,-8.78125 8.78125,-8.78125 z" />
      </g>
      <g
         id="layer5"
         transform="translate(0,956.36218)">
        <rect
           style="opacity:0.1;fill:url(#linearGradient3871-8);fill-opacity:1;fill-rule:nonzero;stroke:#ffffff;stroke-width:0.5;stroke-linecap:round;stroke-linejoin:miter;stroke-miterlimit:4;stroke-opacity:1;stroke-dasharray:none;stroke-dashoffset:0;filter:url(#filter3794-81)"
           id="rect3171"
           clip-path="url(#clipPath3613-08)"
           y="15"
           x="15"
           ry="12"
           rx="12"
           height="66"
           width="66" />
      </g>
    </g>
  </g>
</svg>

<?xml version="1.0" encoding="UTF-8" standalone="no"?>
<!-- Created with Inkscape (http://www.inkscape.org/) -->
<svg id="svg2" xmlns:rdf="http://www.w3.org/1999/02/22-rdf-syntax-ns#" xmlns="http://www.w3.org/2000/svg" height="96" width="96" version="1.1" xmlns:cc="http://creativecommons.org/ns#" xmlns:xlink="http://www.w3.org/1999/xlink" xmlns:dc="http://purl.org/dc/elements/1.1/">
 <defs id="defs4">
  <filter id="filter6279" color-interpolation-filters="sRGB">
   <feGaussianBlur id="feGaussianBlur6281" stdDeviation="0.8"/>
  </filter>
  <linearGradient id="linearGradient5801" y2="902.36" gradientUnits="userSpaceOnUse" x2="48" gradientTransform="translate(0 -.0000078516)" y1="1052.4" x1="48">
   <stop id="stop2843" style="stop-color:#d4530d" offset="0"/>
   <stop id="stop2845" style="stop-color:#f7ad25" offset="1"/>
  </linearGradient>
  <clipPath id="clipPath3754">
   <path id="path3756" style="fill:#f00" d="m-78 6c-3.324 0-6 2.676-6 6v72c0 3.324 2.676 6 6 6h72c3.324 0 6-2.676 6-6v-72c0-3.324-2.676-6-6-6h-72zm4 10a64 64 0 0 1 64 64h-12.812a51.2 51.2 0 0 0 -51.188 -51.188v-12.812zm0 21.562a42.423 42.423 0 0 1 42.438 42.438h-12.438a29.989 29.989 0 0 0 -30 -30v-12.438zm8.7812 24.875c4.8475 0 8.7812 3.9338 8.7812 8.7812 0 4.848-3.933 8.782-8.781 8.782-4.847 0-8.781-3.934-8.781-8.781 0-4.8475 3.9338-8.7812 8.7812-8.7812z"/>
  </clipPath>
  <filter id="filter3762" height="1.24" width="1.24" color-interpolation-filters="sRGB" y="-.12" x="-.12">
   <feGaussianBlur id="feGaussianBlur3764" stdDeviation="3.2"/>
  </filter>
  <clipPath id="clipPath3775">
   <path id="path3777" style="fill:#fff" d="m-84 16v12.8a51.2 51.2 0 0 1 51.2 51.2h12.8a64 64 0 0 0 -64 -64zm0 21.577v12.434a29.989 29.989 0 0 1 29.989 29.989h12.434a42.423 42.423 0 0 0 -42.423 -42.423zm8.7771 24.869c-4.847 0-8.777 3.929-8.777 8.777 0 4.847 3.93 8.777 8.777 8.777 4.8475 0 8.7771-3.9297 8.7771-8.7771 0-4.8475-3.9297-8.7771-8.7771-8.7771z"/>
  </clipPath>
  <filter id="filter3787" color-interpolation-filters="sRGB">
   <feGaussianBlur id="feGaussianBlur3789" stdDeviation="0.42"/>
  </filter>
  <linearGradient id="linearGradient3871-8" y2="138.66" gradientUnits="userSpaceOnUse" y1="20.221" x2="48" x1="48">
   <stop id="stop3739-38" style="stop-color:#fff" offset="0"/>
   <stop id="stop3741-67" style="stop-color:#fff;stop-opacity:0" offset="1"/>
  </linearGradient>
  <clipPath id="clipPath3613-08">
   <rect id="rect3615-19" style="fill:#fff" rx="6" ry="6" height="84" width="84" y="6" x="6"/>
  </clipPath>
  <filter id="filter3794-81" height="1.384" width="1.384" color-interpolation-filters="sRGB" y="-.192" x="-.192">
   <feGaussianBlur id="feGaussianBlur3796-64" stdDeviation="5.28"/>
  </filter>
 </defs>
 <metadata id="metadata7">
  <rdf:RDF>
   <cc:Work rdf:about="">
    <dc:format>image/svg+xml</dc:format>
    <dc:type rdf:resource="http://purl.org/dc/dcmitype/StillImage"/>
    <dc:title/>
   </cc:Work>
  </rdf:RDF>
 </metadata>
 <g id="layer1" transform="translate(0 -956.36)">
  <g id="g9369" transform="translate(0,-1e-5)">
   <rect id="rect9283" ry="5" style="filter:url(#filter6279)" rx="5" transform="translate(0 -.0000078516)" height="80" width="80" y="964.36" x="8"/>
   <rect id="rect9285" style="fill:url(#linearGradient5801)" rx="5" ry="5" height="80" width="80" y="964.36" x="8"/>
   <g id="layer3" transform="matrix(.81905 0 0 .81905 8.8055 965.03)">
    <path id="path3744" style="opacity:.4;filter:url(#filter3762);fill:#fff" d="m-74 16v12.8a51.2 51.2 0 0 1 51.2 51.2h12.8a64 64 0 0 0 -64 -64zm0 21.577v12.434a29.989 29.989 0 0 1 29.989 29.989h12.434a42.423 42.423 0 0 0 -42.423 -42.423zm8.7771 24.869c-4.847 0-8.777 3.929-8.777 8.777 0 4.847 3.93 8.777 8.777 8.777 4.8475 0 8.7771-3.9297 8.7771-8.7771 0-4.8475-3.9297-8.7771-8.7771-8.7771z" clip-path="url(#clipPath3754)" transform="translate(90)"/>
    <path id="circle3643" d="m16 16v12.8a51.2 51.2 0 0 1 51.2 51.2h12.8a64 64 0 0 0 -64 -64zm0 21.577v12.434a29.989 29.989 0 0 1 29.989 29.989h12.434a42.423 42.423 0 0 0 -42.423 -42.423zm8.7771 24.869c-4.847 0-8.777 3.929-8.777 8.777 0 4.847 3.93 8.777 8.777 8.777 4.8475 0 8.7771-3.9297 8.7771-8.7771 0-4.8475-3.9297-8.7771-8.7771-8.7771z" style="fill:#fff"/>
    <path id="rect3766" style="opacity:.8;filter:url(#filter3787)" d="m-88 6c-3.324 0-6 2.676-6 6v72c0 3.324 2.676 6 6 6h72c3.324 0 6-2.676 6-6v-72c0-3.324-2.676-6-6-6h-72zm4 11a64 64 0 0 1 64 64h-12.812a51.2 51.2 0 0 0 -51.188 -51.188v-12.812zm0 21.562a42.423 42.423 0 0 1 42.438 42.438h-12.438a29.989 29.989 0 0 0 -30 -30v-12.438zm8.7812 24.875c4.8475 0 8.7812 3.9338 8.7812 8.7812 0 4.848-3.933 8.782-8.781 8.782-4.847 0-8.781-3.934-8.781-8.781 0-4.8475 3.9338-8.7812 8.7812-8.7812z" clip-path="url(#clipPath3775)" transform="translate(100)"/>
   </g>
   <g id="layer5" transform="translate(0 956.36)">
    <rect id="rect3171" style="opacity:.1;filter:url(#filter3794-81);stroke:#fff;stroke-linecap:round;stroke-width:.5;fill:url(#linearGradient3871-8)" clip-path="url(#clipPath3613-08)" rx="12" ry="12" height="66" width="66" y="15" x="15"/>
   </g>
  </g>
 </g>
</svg>
